X:1
T:Title
%%score { ( 1 3 ) | 2 }
L:1/8
Q:1/4=110
M:4/4
K:Bb
V:1 treble nm="Grand Piano"
V:3 treble 
V:2 bass 
V:1
 [DFB]4 [DFB]2 [DFB]2 | [CFA]3 [B,FG] [A,F]4 | [Fd]4 [Fd]2 [Fd]2 | [Fc]3 [B,FB] [CFA]4 | %4
w: J.~P.~E.~Hartman * *||||
 [B,FB]4 [CFG]2 [B,=EG]2 | [A,CF]8 | c4 A2 F2 | z4 F4 | d4 =B2 G2 | G3 c [EG]4 | %10
w: ||||||
 [Gc]4 [Gd]2 [Gd]2 | [Ge]2 [EG]2 [CEA]2 [EB]2 | B4 c4 |[M:8/4] [DB]8 z8 |[M:4/4] [EB]4 [DB]4 |] %15
w: |||||
V:2
 B,,4 B,,2 D,2 | F,3 F, F,4 | [B,,B,]4 [B,,B,]2 [D,B,]2 | [E,A,]3 E, E,4 | D,4 C,2 C,2 | F,,8 | %6
 [F,A,E]4 [F,CE]2 [F,A,E]2 | [B,D]3 [B,D] [B,D]4 | [G,=B,F]4 [G,DF]2 [G,B,F]2 | %9
 [CE]3 [CE][K:bass] [C,C]4 | [E,C]4 [G,=B,]2 [G,B,]2 | [C,C]2 C,2 C,2 [C,G,]2 | [F,D]4 [F,A,E]4 | %13
[M:8/4] [B,,B,]8 z8 |[M:4/4] [E,G,]4 [B,,F,]4 |] %15
V:3
 x8 | x8 | x8 | x8 | x8 | x8 | x8 | F3 B z2 _A,2 | x8 | x8 | x8 | x8 | x8 |[M:8/4] x16 | %14
[M:4/4] x8 |] %15

